P3
# Original staggered stone ground tile for this repository.
16 16
255
175 175 175 175 175 175 175 175 175 175 175 175 175 175 175 175 175 175 175 175 175 175 175 175 175 175 175 175 175 175 175 175 175 175 175 175 175 175 175 175 175 175 175 175 175 175 175 175
175 175 175 240 240 240 240 240 240 240 240 240 240 240 240 240 240 240 240 240 240 240 240 240 175 175 175 240 240 240 240 240 240 240 240 240 240 240 240 240 240 240 240 240 240 240 240 240
175 175 175 240 240 240 224 224 224 224 224 224 224 224 224 224 224 224 224 224 224 224 224 224 175 175 175 240 240 240 224 224 224 224 224 224 224 224 224 224 224 224 224 224 224 224 224 224
175 175 175 240 240 240 224 224 224 224 224 224 224 224 224 224 224 224 224 224 224 224 224 224 175 175 175 240 240 240 224 224 224 224 224 224 224 224 224 224 224 224 224 224 224 224 224 224
175 175 175 240 240 240 224 224 224 224 224 224 224 224 224 224 224 224 224 224 224 224 224 224 175 175 175 240 240 240 224 224 224 224 224 224 224 224 224 224 224 224 224 224 224 224 224 224
175 175 175 240 240 240 224 224 224 224 224 224 224 224 224 224 224 224 224 224 224 224 224 224 175 175 175 240 240 240 224 224 224 224 224 224 224 224 224 224 224 224 224 224 224 224 224 224
175 175 175 240 240 240 224 224 224 224 224 224 224 224 224 224 224 224 224 224 224 224 224 224 175 175 175 240 240 240 224 224 224 224 224 224 224 224 224 224 224 224 224 224 224 224 224 224
175 175 175 240 240 240 224 224 224 224 224 224 224 224 224 224 224 224 224 224 224 224 224 224 175 175 175 240 240 240 224 224 224 224 224 224 224 224 224 224 224 224 224 224 224 224 224 224
175 175 175 175 175 175 175 175 175 175 175 175 175 175 175 175 175 175 175 175 175 175 175 175 175 175 175 175 175 175 175 175 175 175 175 175 175 175 175 175 175 175 175 175 175 175 175 175
240 240 240 240 240 240 240 240 240 240 240 240 175 175 175 240 240 240 240 240 240 240 240 240 240 240 240 240 240 240 240 240 240 240 240 240 175 175 175 240 240 240 240 240 240 240 240 240
224 224 224 224 224 224 224 224 224 224 224 224 175 175 175 240 240 240 224 224 224 224 224 224 224 224 224 224 224 224 224 224 224 224 224 224 175 175 175 240 240 240 224 224 224 224 224 224
224 224 224 224 224 224 224 224 224 224 224 224 175 175 175 240 240 240 224 224 224 224 224 224 224 224 224 224 224 224 224 224 224 224 224 224 175 175 175 240 240 240 224 224 224 224 224 224
224 224 224 224 224 224 224 224 224 224 224 224 175 175 175 240 240 240 224 224 224 224 224 224 224 224 224 224 224 224 224 224 224 224 224 224 175 175 175 240 240 240 224 224 224 224 224 224
224 224 224 224 224 224 224 224 224 224 224 224 175 175 175 240 240 240 224 224 224 224 224 224 224 224 224 224 224 224 224 224 224 224 224 224 175 175 175 240 240 240 224 224 224 224 224 224
224 224 224 224 224 224 224 224 224 224 224 224 175 175 175 240 240 240 224 224 224 224 224 224 224 224 224 224 224 224 224 224 224 224 224 224 175 175 175 240 240 240 224 224 224 224 224 224
224 224 224 224 224 224 224 224 224 224 224 224 175 175 175 240 240 240 224 224 224 224 224 224 224 224 224 224 224 224 224 224 224 224 224 224 175 175 175 240 240 240 224 224 224 224 224 224
